Catalina-light/actions/16/im-twitter.svg

<svg xmlns="http://www.w3.org/2000/svg" width="16" height="16" viewBox="0 0 16 16">
 <defs>
  <style id="current-color-scheme" type="text/css">
   .ColorScheme-Text { color:#5c616c; } .ColorScheme-Highlight { color:#5294e2; }
  </style>
 </defs>
 <path style="fill:currentColor" class="ColorScheme-Text" d="M 11.078125 1 C 9.2652887 1 7.7949219 2.5814157 7.7949219 4.5332031 C 7.7949219 4.8102047 7.8248583 5.0811969 7.8808594 5.3398438 C 5.1526143 5.1923912 2.7323612 3.7846485 1.1132812 1.6464844 C 0.83072322 2.168454 0.66992188 2.7761035 0.66992188 3.4238281 C 0.66992188 4.650022 1.2480886 5.7315372 2.1289062 6.3652344 C 1.5908193 6.3468818 1.0851394 6.1885085 0.64257812 5.9238281 C 0.64219717 5.9385652 0.64257812 5.9518937 0.64257812 5.9667969 C 0.64257812 7.6791328 1.7737415 9.108542 3.2753906 9.4335938 C 2.9999375 9.514385 2.7095146 9.5566406 2.4101562 9.5566406 C 2.1986282 9.5566406 1.993449 9.5353125 1.7929688 9.4941406 C 2.2107295 10.8982 3.4228701 11.91876 4.859375 11.947266 C 3.7359049 12.895248 2.3211386 13.460938 0.78320312 13.460938 C 0.51824545 13.460938 0.25680514 13.444754 0 13.412109 C 1.4527529 14.414971 3.1773082 15 5.03125 15 C 11.069276 15 14.371094 9.6138513 14.371094 4.9433594 C 14.371094 4.7901277 14.369617 4.6380053 14.363281 4.4863281 C 15.00457 3.9881273 15.559915 3.3650475 16 2.65625 C 15.411341 2.9373942 14.779152 3.1274543 14.115234 3.2128906 C 14.792924 2.775496 15.31356 2.0831365 15.558594 1.2578125 C 14.924257 1.662907 14.222396 1.9567486 13.474609 2.1152344 C 12.875874 1.4283189 12.022296 1 11.078125 1 z"/>
</svg>

<svg width="16" height="16" viewBox="0 0 16 16" xmlns="http://www.w3.org/2000/svg">
<defs>
<style id="current-color-scheme" type="text/css">.ColorScheme-Text { color:#5c616c; } .ColorScheme-Highlight { color:#5294e2; }</style>
</defs>
<path class="ColorScheme-Text" d="m11.078 1c-1.8128 0-3.2832 1.5814-3.2832 3.5332 0 0.277 0.029936 0.54799 0.085938 0.80664-2.7282-0.14745-5.1485-1.5552-6.7676-3.6934-0.28256 0.52197-0.44336 1.1296-0.44336 1.7773 0 1.2262 0.57817 2.3077 1.459 2.9414-0.53809-0.018353-1.0438-0.17673-1.4863-0.44141-3.8095e-4 0.014737 0 0.028066 0 0.042969 0 1.7123 1.1312 3.1417 2.6328 3.4668-0.27545 0.080791-0.56588 0.12305-0.86523 0.12305-0.21153 0-0.41671-0.021328-0.61719-0.0625 0.41776 1.4041 1.6299 2.4246 3.0664 2.4531-1.1235 0.94798-2.5382 1.5137-4.0762 1.5137-0.26496 0-0.5264-0.016184-0.7832-0.048829 1.4528 1.0029 3.1773 1.5879 5.0312 1.5879 6.038 0 9.3398-5.3861 9.3398-10.057 0-0.15323-0.001477-0.30535-0.007813-0.45703 0.64129-0.4982 1.1966-1.1213 1.6367-1.8301-0.58866 0.28114-1.2208 0.4712-1.8848 0.55664 0.67769-0.43739 1.1983-1.1298 1.4434-1.9551-0.63434 0.40509-1.3362 0.69894-2.084 0.85742-0.59874-0.68692-1.4523-1.1152-2.3965-1.1152z" fill="currentColor"/>
</svg>
